X:48
T: Fangfengzheng
N: C1546
O: China,Heilongjiang, Zhaodong
S: III, 61]
R: Xiaodiao, Jiandianhua diao]
M: 2/4
L: 1/8
K: E
B2Bc | e4 | fedc | B4 |
B2Bc | e4 | fedc | B4 |
B2Bc | e2ec | BBec | B3G |
FGFE | CEFG | E3F | E4 |
cecB | cecB | ABAB | A3B | A3B |
FGFE | CEFG | E3F | E4

@@@ Tune index: 6603
